X:1
T: Just as I was in the Morning
T: The Deuk's Dang ow'r my Daddie, Oh!
R:Jig
Q:180
K:D
M:6/8
L:1/16
fe|d4A2 F2E2D2|E2F2E2 c4Bc|d4A2 F4E2|F2D2D2 D4fe|d4A2 F2E2D2|E2F2E2 c4Bc|d4A2 F4E2|F2D2D2 D4A2|
d2c2d2 B2c2d2|e2f2d2 c2B2A2|d2c2d2 e2f2g2|f2d2d2 d4ef|g2f2g2 B2c2d2|e2f2d2 c2B2A2|d4A2 F4E2|F2D2D2 D4fe|
d4A2 F2E2D2|E2F2E2 c4Bc|d4A2 F4E2|F2D2D2 D4fe|d4A2 F2E2D2|E2F2E2 c4Bc|d4A2 F4E2|F2D2D2 D4A2|
d2c2d2 B2c2d2|e2f2d2 c2B2A2|d2c2d2 e2f2g2|f2d2d2 d4ef|g2f2g2 B2c2d2|e2f2d2 c2B2A2|d4A2 F4E2|F2D2D2 D4||
